X: 7127
T: Christmas Time Will Soon Be Over
R: polka
M: 2/4
K: Amajor
|:A/B/|"A" cc AA/A/|"A" c/B/c/d/ e/f/e/c/|"E" B/c/B/A/ GG/A/|"E"Bc/c/ d/e/d/B/|
"A" c/B/c/B/ AA/B/|"A" c/B/c/d/ e/f/e/c/|"E" B/c/B/A/ G/F/E|"A" A>B A:|
K:AMix
|:z|"A" ea aa|"A" a/b/a/g/ ec/d/|"G" e/d/e/f/ gg|"G" g/a/g/f/ e/d/c/d/|
"A" ea aa|"A" a/b/a/g/ e/d/c/d/|"A" ee/e/ "G" BG/B/|"A" AA/A/ A:|

